packages/katcn/src/icons/svg/hat-solid.svg

<svg width="24" height="25" viewBox="0 0 24 25" fill="none" xmlns="http://www.w3.org/2000/svg">
<path d="M17.6 15.708L14.8 17.208C14 17.608 13 17.908 12 17.908C11 17.908 10.1 17.708 9.2 17.208L6.3 15.708L5.3 15.208L4.3 14.708V16.108C4.3 17.208 4.9 18.208 5.9 18.708L10.2 20.908C10.8 21.108 11.4 21.208 12 21.208C12.6 21.208 13.2 21.108 13.7 20.808L18 18.608C19 18.108 19.6 17.108 19.6 16.008V14.608L18.6 15.108L17.6 15.708Z" fill="black"/>
<path d="M22 8.00801L13.8 3.70801C13.2 3.30801 12.6 3.20801 12 3.20801C11.4 3.20801 10.8 3.30801 10.2 3.60801L2 8.00801C1.4 8.30801 1 8.90801 1 9.50801C1 10.208 1.4 10.808 2 11.108L4.4 12.308L5.4 12.808L6.4 13.308L10.2 15.308C10.8 15.608 11.4 15.708 12 15.708C12.6 15.708 13.2 15.508 13.8 15.308L17.6 13.308L18.6 12.808L19.6 12.308L22 11.108C22.6 10.808 23 10.208 23 9.50801C23 8.90801 22.6 8.30801 22 8.00801Z" fill="black"/>
</svg>

<svg xmlns="http://www.w3.org/2000/svg" fill="none" viewBox="0 0 24 25"><path fill="#000" d="m17.6 15.708-2.8 1.5c-.8.4-1.8.7-2.8.7s-1.9-.2-2.8-.7l-2.9-1.5-1-.5-1-.5v1.4c0 1.1.6 2.1 1.6 2.6l4.3 2.2q.9.3 1.8.3c.6 0 1.2-.1 1.7-.4l4.3-2.2c1-.5 1.6-1.5 1.6-2.6v-1.4l-1 .5z"/><path fill="#000" d="m22 8.008-8.2-4.3c-.6-.4-1.2-.5-1.8-.5s-1.2.1-1.8.4L2 8.008c-.6.3-1 .9-1 1.5 0 .7.4 1.3 1 1.6l2.4 1.2 1 .5 1 .5 3.8 2c.6.3 1.2.4 1.8.4s1.2-.2 1.8-.4l3.8-2 1-.5 1-.5 2.4-1.2c.6-.3 1-.9 1-1.6 0-.6-.4-1.2-1-1.5"/></svg>
